src/app/icons/menu.svg

<svg xmlns="http://www.w3.org/2000/svg" width="19" height="19" viewBox="0 -2 20 20">
    <path fill="var(--fill, var(--default-fill))" fill-rule="evenodd" d="M0 6h20v2H0V6zm0-6h20v2H0V0zm0 12h20v2H0v-2z"/>
</svg>

<svg xmlns="http://www.w3.org/2000/svg" width="19" height="19" viewBox="0 -2 20 20">
    <path fill="#86868E" fill-rule="evenodd" d="M0,6 L20,6 L20,8 L0,8 L0,6 Z M0,0 L20,0 L20,2 L0,2 L0,0 Z M0,12 L20,12 L20,14 L0,14 L0,12 Z"/>
</svg>
